src/assets/img/svg/users.svg

<svg width="20" height="14" xmlns:xlink="http://www.w3.org/1999/xlink" xmlns="http://www.w3.org/2000/svg">
  <defs>
    <clipPath id="b14">
      <use xlink:href="#a14"/>
    </clipPath>
    <path d="M7.1134 8.6675c-2.22968 0-6.669997 1.11484-6.669997 3.335V13.67H13.7834v-1.6675c0-2.22016-4.44031-3.335-6.67-3.335Zm-4.44031 3.0968c.8004-.5527 2.7347-1.1911 4.44031-1.1911 1.70562 0 3.6399.6384 4.4403 1.1911H2.67309ZM7.1134 7c1.83902 0 3.335-1.49599 3.335-3.335S8.95242.33 7.1134.33c-1.83901 0-3.335 1.49599-3.335 3.335S5.27439 7 7.1134 7Zm0-4.76429c.79087 0 1.42929.63842 1.42929 1.42929S7.90427 5.09429 7.1134 5.09429 5.68412 4.45587 5.68412 3.665s.63841-1.42929 1.42928-1.42929Zm6.7081 6.48896c1.1053.8004 1.8676 1.86763 1.8676 3.27783V13.67h3.8114v-1.6675c0-1.9248-3.335-3.02056-5.679-3.27783ZM12.8305 7c1.8391 0 3.335-1.49599 3.335-3.335S14.6696.33 12.8305.33c-.5145 0-.9909.123871-1.4292.3335.6003.84804.9528 1.88666.9528 3.0015s-.3525 2.15346-.9528 3.0015c.4383.20963.9147.3335 1.4292.3335Z" id="a14"/>
  </defs>
  <path d="M7.1134 8.6675c-2.22968 0-6.669997 1.11484-6.669997 3.335V13.67H13.7834v-1.6675c0-2.22016-4.44031-3.335-6.67-3.335Zm-4.44031 3.0968c.8004-.5527 2.7347-1.1911 4.44031-1.1911 1.70562 0 3.6399.6384 4.4403 1.1911H2.67309ZM7.1134 7c1.83902 0 3.335-1.49599 3.335-3.335S8.95242.33 7.1134.33c-1.83901 0-3.335 1.49599-3.335 3.335S5.27439 7 7.1134 7Zm0-4.76429c.79087 0 1.42929.63842 1.42929 1.42929S7.90427 5.09429 7.1134 5.09429 5.68412 4.45587 5.68412 3.665s.63841-1.42929 1.42928-1.42929Zm6.7081 6.48896c1.1053.8004 1.8676 1.86763 1.8676 3.27783V13.67h3.8114v-1.6675c0-1.9248-3.335-3.02056-5.679-3.27783ZM12.8305 7c1.8391 0 3.335-1.49599 3.335-3.335S14.6696.33 12.8305.33c-.5145 0-.9909.123871-1.4292.3335.6003.84804.9528 1.88666.9528 3.0015s-.3525 2.15346-.9528 3.0015c.4383.20963.9147.3335 1.4292.3335Z" fill="none"/>
  <g clip-path="url(#b14)">
    <path d="M-2-5h24v24H-2V-5Z" fill="currentColor" fill-rule="evenodd"/>
  </g>
</svg>

<?xml version="1.0" encoding="utf-8"?>
<svg width="20px" height="14px" viewBox="0 0 20 14" version="1.1" xmlns:xlink="http://www.w3.org/1999/xlink" xmlns="http://www.w3.org/2000/svg">
  <defs>
    <path d="M7.1134 8.6675C4.88372 8.6675 0.443403 9.78234 0.443403 12.0025L0.443403 13.67L13.7834 13.67L13.7834 12.0025C13.7834 9.78234 9.34309 8.6675 7.1134 8.6675ZM2.67309 11.7643C3.47349 11.2116 5.40779 10.5732 7.1134 10.5732C8.81902 10.5732 10.7533 11.2116 11.5537 11.7643L2.67309 11.7643ZM7.1134 7C8.95242 7 10.4484 5.50401 10.4484 3.665C10.4484 1.82599 8.95242 0.33 7.1134 0.33C5.27439 0.33 3.7784 1.82599 3.7784 3.665C3.7784 5.50401 5.27439 7 7.1134 7ZM7.1134 2.23571C7.90427 2.23571 8.54269 2.87413 8.54269 3.665C8.54269 4.45587 7.90427 5.09429 7.1134 5.09429C6.32253 5.09429 5.68412 4.45587 5.68412 3.665C5.68412 2.87413 6.32253 2.23571 7.1134 2.23571ZM13.8215 8.72467C14.9268 9.52507 15.6891 10.5923 15.6891 12.0025L15.6891 13.67L19.5005 13.67L19.5005 12.0025C19.5005 10.0777 16.1655 8.98194 13.8215 8.72467L13.8215 8.72467ZM12.8305 7C14.6696 7 16.1655 5.50401 16.1655 3.665C16.1655 1.82599 14.6696 0.33 12.8305 0.33C12.316 0.33 11.8396 0.453871 11.4013 0.6635C12.0016 1.51154 12.3541 2.55016 12.3541 3.665C12.3541 4.77984 12.0016 5.81846 11.4013 6.6665C11.8396 6.87613 12.316 7 12.8305 7Z" id="path_14" />
    <clipPath id="mask_14">
      <use xlink:href="#path_14" />
    </clipPath>
  </defs>
  <g id="iconsicoutline-dashboard-24px">
    <path d="M7.1134 8.6675C4.88372 8.6675 0.443403 9.78234 0.443403 12.0025L0.443403 13.67L13.7834 13.67L13.7834 12.0025C13.7834 9.78234 9.34309 8.6675 7.1134 8.6675ZM2.67309 11.7643C3.47349 11.2116 5.40779 10.5732 7.1134 10.5732C8.81902 10.5732 10.7533 11.2116 11.5537 11.7643L2.67309 11.7643ZM7.1134 7C8.95242 7 10.4484 5.50401 10.4484 3.665C10.4484 1.82599 8.95242 0.33 7.1134 0.33C5.27439 0.33 3.7784 1.82599 3.7784 3.665C3.7784 5.50401 5.27439 7 7.1134 7ZM7.1134 2.23571C7.90427 2.23571 8.54269 2.87413 8.54269 3.665C8.54269 4.45587 7.90427 5.09429 7.1134 5.09429C6.32253 5.09429 5.68412 4.45587 5.68412 3.665C5.68412 2.87413 6.32253 2.23571 7.1134 2.23571ZM13.8215 8.72467C14.9268 9.52507 15.6891 10.5923 15.6891 12.0025L15.6891 13.67L19.5005 13.67L19.5005 12.0025C19.5005 10.0777 16.1655 8.98194 13.8215 8.72467L13.8215 8.72467ZM12.8305 7C14.6696 7 16.1655 5.50401 16.1655 3.665C16.1655 1.82599 14.6696 0.33 12.8305 0.33C12.316 0.33 11.8396 0.453871 11.4013 0.6635C12.0016 1.51154 12.3541 2.55016 12.3541 3.665C12.3541 4.77984 12.0016 5.81846 11.4013 6.6665C11.8396 6.87613 12.316 7 12.8305 7Z" id="iconsicoutline-people_outline-24px" fill="none" stroke="none" />
    <g clip-path="url(#mask_14)">
      <g id="🎨-color" transform="translate(-2 -5)">
        <path d="M0 0L24 0L24 24L0 24L0 0Z" id="BG" fill="#66788A" fill-rule="evenodd" stroke="none" />
      </g>
    </g>
  </g>
</svg>
